!!! OTL: Berkowitz482
!!! Chapter: 1
!!! Section: IV
!!! Page: 120
!!! Mode: 
!!! Encoder: DJB
**kern
*staff1
*I"Piano
=1-
*clefF4
*k[f#c#]
*b:
*M15/8
8BB/
4B\
4F#\
[8D\L
8D\]
8C#\
8D\
8E\
8D\
8C#\J
4D\
8C#/
=2
8BB/
4B\
4F#\
[8D\L
8D\]
8C#\
8D\
8E\
8D\
8C#\J
4.BB/
=3
8D\
4d\
4A\
[8F#\L
8F#\]
8E\
8F#\
8G\
8F#\
8E\
8F#\
8E\
8D\J
=4
!!linebreak:original
8E\L
8F#\
8G\
8F#\
8G\
8A\
8G\
8A\
[8B-\
8B-\]
8A\
8G\J
4.A\
=5
8r
8G\L
8F#\
8E\
8F#\
8E\
8D\
8E\
8D\
8C#\
8D\
8C#\J
4BB/
8BB-/
=6
8AA/L
8BB/
[8C#/
8C#/]
8BB/
8C#/
8D/
8C#/
8D/
8E/
8D/
8E/J
4.F#\
=7
!!linebreak:original
8BB/
4B\
4F#\
[8D\L
8D\]
8C#\
8D\
8E\
8D\
8C#\J
4D\
8C#/
=8
8BB/
4B\
4F#\
[8D\L
8D\]
8C#\
8D\
8E\
8D\
8C#\J
4.BB/
==
*-
